icons/mobile/24/svg/home-24.svg

<svg width="24" height="24" viewBox="0 0 24 24" fill="none" xmlns="http://www.w3.org/2000/svg">
<path fill-rule="evenodd" clip-rule="evenodd" d="M10.1432 3.61388C11.2542 2.79609 12.7452 2.79595 13.8561 3.61388C15.1561 4.57188 16.4293 5.59771 17.6403 6.66271C19.0763 7.92471 20.4643 9.27722 21.7663 10.6832C22.0951 11.0372 22.0743 11.5916 21.7194 11.9195C21.5514 12.0755 21.3377 12.152 21.1247 12.152C20.8898 12.1519 20.655 12.0576 20.4831 11.8717C20.4058 11.7883 20.3276 11.7057 20.2497 11.6227V17.486C20.2497 19.0218 19.1082 20.3515 17.5944 20.5797C15.7474 20.8577 13.8647 21.0006 11.9997 21.0006C10.1449 21.0006 8.27109 20.8605 6.43231 20.5846C4.87831 20.3526 3.74969 19.0499 3.74969 17.4889V11.6227C3.6718 11.7057 3.59357 11.7883 3.51629 11.8717C3.18936 12.2266 2.63298 12.2473 2.27997 11.9195C1.92597 11.5915 1.90409 11.0372 2.23309 10.6832C3.53509 9.27822 4.92304 7.92471 6.36004 6.66271C7.56997 5.59879 8.84333 4.57182 10.1432 3.61388ZM11.9997 13.7506C11.5339 13.7506 11.1059 13.7934 10.7243 13.858C10.3084 13.9288 9.99987 14.292 9.99969 14.7242V19.191C11.3321 19.2652 12.6687 19.265 13.9997 19.191V14.7194C13.9996 14.2839 13.6941 13.9317 13.319 13.8658C12.797 13.7744 12.3449 13.7506 11.9997 13.7506ZM12.8171 5.02209C12.3292 4.66114 11.6713 4.66125 11.1823 5.02209C9.92237 5.95104 8.68827 6.94522 7.51532 7.97717C6.83075 8.57862 6.15724 9.20108 5.49969 9.84045V17.4889C5.49969 18.1769 6.00112 18.7501 6.69012 18.8531C7.20816 18.9307 7.72836 18.9948 8.24969 19.0494V14.7242C8.24987 13.449 9.16382 12.3488 10.4313 12.1334C10.8994 12.0541 11.4259 12.0006 11.9997 12.0006C12.318 12.0006 12.7103 12.0164 13.1569 12.0719L13.6218 12.1422C14.8866 12.3643 15.7496 13.489 15.7497 14.7194V19.0494C16.2791 18.9938 16.8071 18.9286 17.3327 18.8492C17.9987 18.7492 18.4997 18.162 18.4997 17.486V9.84142C17.8421 9.20179 17.1693 8.57874 16.485 7.97717C15.3111 6.94518 14.0771 5.95107 12.8171 5.02209Z" fill="black"/>
</svg>

<!-- This Source Code Form is subject to the terms of the Mozilla Public
   - License, v. 2.0. If a copy of the MPL was not distributed with this
   - file, You can obtain one at http://mozilla.org/MPL/2.0/. -->
<svg xmlns="http://www.w3.org/2000/svg" width="24" height="24" fill="none" viewBox="0 0 24 24">
    <path fill="#000" fill-rule="evenodd" d="M10.143 3.614a3.12 3.12 0 0 1 3.713 0 56.6 56.6 0 0 1 7.91 7.07.874.874 0 1 1-1.283 1.188l-.233-.25v5.864a3.145 3.145 0 0 1-2.656 3.094c-1.847.278-3.73.42-5.594.42a38 38 0 0 1-5.568-.415 3.12 3.12 0 0 1-2.682-3.096v-5.866l-.234.249a.875.875 0 1 1-1.283-1.189 56.3 56.3 0 0 1 7.91-7.07M12 13.75a7.6 7.6 0 0 0-1.276.107.875.875 0 0 0-.724.866v4.467c1.332.074 2.669.074 4 0v-4.472c0-.435-.306-.787-.681-.853a7.7 7.7 0 0 0-1.32-.115m.817-8.729a1.37 1.37 0 0 0-1.635 0A55 55 0 0 0 5.5 9.84v7.649c0 .688.501 1.261 1.19 1.364q.777.116 1.56.196v-4.325c0-1.275.914-2.375 2.181-2.59a9.4 9.4 0 0 1 2.726-.062l.465.07c1.265.222 2.128 1.347 2.128 2.577v4.33q.794-.081 1.583-.2a1.384 1.384 0 0 0 1.167-1.363V9.841a54.5 54.5 0 0 0-5.683-4.819" clip-rule="evenodd" />
</svg>
